X:3845
T:Luck Penny, The
O:england
M:6/8
L:1/8
R:jig
K:G
BAG AFD|~G3 FGA|BAG B/2c/2dB|cAG FGA|
~B3 AFD|GBd ~g3|def gdB|1cAF G2A:|2cAF G2A||
Bdg gfg|a2g fga|bag agf|def ~g2a|
bag afd|~g3 fd^c|def gdB|1cAF G2A:|2cAF GBc||
dBG GFG|dBG GAB|cA=F FEF|cA=F ABc|
dBG GBd|gag fd^c|def gdB|cAF G (3ABc|
dBG ~G3|DGB DGB|cA=F FEF|C=FA cBA|
dBG GBd|~g3 fd^c|def gdB|cAF G2A||


